X: 3
T: Hommage \`a la Belle Gasp\'esie
C: Marcel Messervier
R: reel
M: C|
L: 1/8
K: A
EA |\
"A"c3 d cBAc | feef e2 EA |\
"A"c2 cd "A#dim"cBAc | "Bm7"edde d2 Bc ||\
dcde dcBA | "E7"BABc B3 e |
ecef edcB |[1 "(A)"cBcd "A"cA :|[2 "A"Ac (3BcB "A7"A3 A |:\
"D"aA=gA "D/F#"(3faf "D/G#"ec | "A"Acef "F#m"ecAF |\
"Bm7"EEBE "E7"cE (3BcB |
"A"ABcd "A7"ecBA ||\
"D"aA=gA "D/F#"(3faf "D/G#"ec | "A"Acef "F#m"ecAF |\
"Bm7"EEBE "E7"cE (3BcB | "A"Ac (3BcB A4 :|]
% text 04/12/14

